svg/gitlab.svg

<?xml version="1.0" encoding="UTF-8"?>
<svg xmlns="http://www.w3.org/2000/svg" xmlns:xlink="http://www.w3.org/1999/xlink" width="33.546001" height="32" viewBox="0 0 33.546001 32">
<path fill-rule="nonzero" fill="rgb(88.627452%, 26.274511%, 16.078432%)" fill-opacity="1" d="M 16.773438 24.902344 L 20.335938 13.949219 L 13.21875 13.949219 Z M 16.773438 24.902344 "/>
<path fill-rule="nonzero" fill="rgb(98.823529%, 63.921571%, 14.901961%)" fill-opacity="1" d="M 8.230469 13.949219 L 7.148438 17.277344 C 7.050781 17.582031 7.15625 17.914062 7.414062 18.101562 L 16.773438 24.902344 Z M 8.230469 13.949219 "/>
<path fill-rule="nonzero" fill="rgb(88.627452%, 26.274511%, 16.078432%)" fill-opacity="1" d="M 8.230469 13.949219 L 13.21875 13.949219 L 11.074219 7.351562 C 11.023438 7.199219 10.882812 7.097656 10.722656 7.097656 C 10.5625 7.097656 10.421875 7.199219 10.371094 7.351562 Z M 8.230469 13.949219 "/>
<path fill-rule="nonzero" fill="rgb(98.823529%, 63.921571%, 14.901961%)" fill-opacity="1" d="M 25.320312 13.949219 L 26.402344 17.277344 C 26.5 17.582031 26.394531 17.914062 26.136719 18.101562 L 16.773438 24.902344 Z M 25.320312 13.949219 "/>
<path fill-rule="nonzero" fill="rgb(88.627452%, 26.274511%, 16.078432%)" fill-opacity="1" d="M 25.320312 13.949219 L 20.335938 13.949219 L 22.476562 7.351562 C 22.585938 7.015625 23.066406 7.015625 23.179688 7.351562 Z M 25.320312 13.949219 "/>
<path fill-rule="nonzero" fill="rgb(98.823529%, 42.745098%, 14.901961%)" fill-opacity="1" d="M 16.773438 24.902344 L 20.335938 13.949219 L 25.320312 13.949219 Z M 16.773438 24.902344 L 8.230469 13.949219 L 13.21875 13.949219 Z M 16.773438 24.902344 "/>
</svg>

<svg role="img" viewBox="0 0 33.546 32" xmlns="http://www.w3.org/2000/svg"><path d="m16.773 24.902 3.563-10.953h-7.117Zm0 0" fill="rgb(88.627452%, 26.274511%, 16.078432%)"/><path d="m8.23 13.95-1.082 3.327a.74.74 0 0 0 .266.825l9.36 6.8Zm0 0" fill="rgb(98.823529%, 63.921571%, 14.901961%)"/><path d="M8.23 13.95h4.989l-2.145-6.598a.37.37 0 0 0-.703 0Zm0 0" fill="rgb(88.627452%, 26.274511%, 16.078432%)"/><path d="m25.32 13.95 1.082 3.327a.74.74 0 0 1-.265.825l-9.364 6.8Zm0 0" fill="rgb(98.823529%, 63.921571%, 14.901961%)"/><path d="M25.32 13.95h-4.984l2.14-6.598c.11-.336.59-.336.704 0Zm0 0" fill="rgb(88.627452%, 26.274511%, 16.078432%)"/><path d="m16.773 24.902 3.563-10.953h4.984Zm0 0L8.23 13.95h4.989Zm0 0" fill="rgb(98.823529%, 42.745098%, 14.901961%)"/></svg>
